X:1
T:Mirage
C:Laurence Beaudry
Z:robin.beech@mcgill.ca
R:jig
M:6/8
L:1/8
K:Amin
E | FcB AFG | EcB AFD | ^CDG FAc | Bcd e2^c |  
d^cd fed | ^caa a2g |1 fdA e^cA | dAF E2G :|2 fdA EA^c | dAF D3 |:
EFG AFD | ^CEG F2A | Bcd G^FG | cde B2A |
fdA a^ge | ecA aec |1 Bcd ece | ab^g e3 :|2 Bcd ef^g | ab^g a3 |]
